src/img/HomePage/Footer/NarutoBlack.svg

<?xml version="1.0" encoding="UTF-8"?> <svg xmlns="http://www.w3.org/2000/svg" width="60" height="80" viewBox="0 0 60 80" fill="none"> <g clip-path="url(#clip0_1800_1734)"> <path fill-rule="evenodd" clip-rule="evenodd" d="M-3.44228 9.30436C-1.70226 9.14611 1.17309 11.014 3.75969 10.9733C7.25486 10.9176 10.6381 8.60965 13.5427 4.30054C15.6692 1.14491 16.8938 0.315477 19.7933 0.0683734C23.1 -0.21215 23.7017 0.184857 27.0406 4.85551C31.1919 10.6614 34.0844 11.8331 39.9258 10.0751C44.8924 8.57927 47.4714 9.35601 49.2916 12.8934C50.4193 15.086 50.4788 16.5119 49.5819 19.8883C48.0479 25.6669 49.3702 28.8701 54.9073 32.7843C61.7172 37.5977 61.697 42.6532 54.8498 46.9967C49.5012 50.3893 48.2172 53.3444 49.4488 59.4228C50.7288 65.7452 50.2682 67.4607 46.8063 69.2603C44.3925 70.514 43.1287 70.5647 39.3886 69.5601C33.5855 68.0005 30.8986 69.1803 27.0235 74.9882C22.714 81.4484 16.5693 81.6955 13.2727 75.5422C11.6732 72.5557 7.36825 68.8969 5.05879 68.8887C1.78488 68.877 0.597082 69.4821 -1.63527 70.0816C-2.96359 70.4391 -3.48603 70.7449 -5.22414 70.7449C-8.25318 70.4159 -9.2217 69.6858 -10.2688 67.3778C-11.2061 65.3108 -10.6533 62.7708 -9.72513 59.6598C-8.08337 54.1526 -10.1545 49.1437 -15.0415 46.8023C-19.4074 44.71 -21.039 41.0467 -19.3393 36.9959C-18.651 35.3553 -16.3158 33.9577 -14.3002 32.4386C-12.66 31.2025 -11.3699 30.295 -10.3268 28.5004C-8.61347 25.5524 -8.55299 24.6855 -9.70797 19.5024C-10.4956 15.968 -10.7728 13.197 -8.12572 11.2964C-6.5021 9.89276 -5.18231 9.4626 -3.44228 9.30436ZM37.3548 34.8897C35.3663 29.6569 33.9233 27.6756 28.7572 25.8243C24.0032 24.1199 22.7102 24.3052 18.9427 25.2547C12.1015 27.8584 8.13971 35.7039 10.9284 41.1229C13.4601 46.0407 15.9767 47.6246 20.7115 47.2762C23.0809 47.1031 25.1923 46.4306 25.4039 45.7835C25.673 44.9602 24.5483 44.7738 21.6628 45.1627C18.2775 45.6184 17.0923 45.2984 15.0575 43.3783C11.3638 39.8915 11.6198 34.0957 15.6451 30.0509C18.4953 27.187 19.4559 26.3985 24.7258 26.837C29.4778 27.233 30.4411 28.3911 32.4165 30.855C35.835 35.1165 37.1442 40.7169 35.7281 45.026C32.0254 56.3006 18.3128 60.9337 7.85955 54.4412C3.82419 51.9357 1.92344 52.8371 5.35209 55.6302C10.5515 59.8664 21.3464 60.8487 27.5799 57.6536C36.7441 52.9556 40.7109 43.7185 37.3548 34.8897Z" fill="#201B19"></path> </g> <defs> <clipPath id="clip0_1800_1734"> <rect width="60" height="80" fill="white" transform="matrix(-1 0 0 1 60 0)"></rect> </clipPath> </defs> </svg>

<svg xmlns="http://www.w3.org/2000/svg" width="60" height="80" fill="none"><g clip-path="url(#a)"><path fill-rule="evenodd" clip-rule="evenodd" d="M-3.442 9.304c1.74-.158 4.615 1.71 7.202 1.67 3.495-.056 6.878-2.364 9.783-6.673 2.126-3.156 3.35-3.986 6.25-4.233 3.307-.28 3.909.117 7.248 4.788 4.15 5.805 7.043 6.977 12.885 5.22 4.966-1.497 7.545-.72 9.366 2.817 1.127 2.193 1.187 3.619.29 6.995-1.534 5.779-.212 8.982 5.325 12.896 6.81 4.814 6.79 9.87-.057 14.213-5.349 3.392-6.633 6.347-5.401 12.426 1.28 6.322.82 8.038-2.643 9.837-2.413 1.254-3.677 1.305-7.417.3-5.803-1.56-8.49-.38-12.366 5.428-4.309 6.46-10.454 6.707-13.75.554-1.6-2.986-5.905-6.645-8.214-6.653-3.274-.012-4.462.593-6.694 1.193-1.329.357-1.851.663-3.59.663-3.028-.33-3.997-1.06-5.044-3.367-.937-2.067-.384-4.607.544-7.718 1.642-5.507-.43-10.516-5.316-12.858-4.366-2.092-5.998-5.755-4.298-9.806.688-1.64 3.023-3.038 5.039-4.557 1.64-1.236 2.93-2.144 3.973-3.939 1.714-2.948 1.774-3.814.619-8.998-.788-3.534-1.065-6.305 1.582-8.206 1.624-1.403 2.944-1.833 4.684-1.992ZM37.355 34.89c-1.989-5.233-3.432-7.214-8.598-9.066-4.754-1.704-6.047-1.519-9.814-.57-6.842 2.604-10.803 10.45-8.015 15.869 2.532 4.918 5.049 6.502 9.784 6.153 2.369-.173 4.48-.845 4.692-1.493.269-.823-.856-1.01-3.741-.62-3.386.455-4.57.135-6.606-1.785-3.693-3.486-3.437-9.282.588-13.327 2.85-2.864 3.81-3.652 9.08-3.214 4.753.396 5.716 1.554 7.691 4.018 3.419 4.262 4.728 9.862 3.312 14.171-3.703 11.275-17.415 15.908-27.868 9.415-4.036-2.505-5.937-1.604-2.508 1.19 5.2 4.235 15.994 5.218 22.228 2.023 9.164-4.698 13.13-13.936 9.775-22.764Z" fill="#201B19"/></g><defs><clipPath id="a"><path fill="#fff" transform="matrix(-1 0 0 1 60 0)" d="M0 0h60v80H0z"/></clipPath></defs></svg>
